X: 1
T: O'Raghallaigh's
M: 6/8
L: 1/8
R: jig
K: Dmaj
|:A/G/|FDD ADD|def gfe|fdd fgf|eEE EFG|
FDD ADD|def gfg|eag f2e|fdd d2:|
|:e|faa fba|faf edd|faa fab|afd e2d|
faa fbd|faf edd|efg f2e|fdd d2:|
